X:14299
T:Riou Piou Piou
R:Branle morgu
A:Flandre
O:France
M:6/8
L:1/8
Q:1/4=140
K:D
DD2D|E2E EFG|A2d dcB|
A2c dcB|A2DD2D|E2E EFG|
M:9/8
F3E3D2D||
M:6/8
D2 z d2D|D3d2D|D2||
